imgs/HongKongFlag.svg

<svg width="24" height="18" viewBox="0 0 24 18" fill="none" xmlns="http://www.w3.org/2000/svg">
<path fill-rule="evenodd" clip-rule="evenodd" d="M24 18H0V0H24V18Z" fill="#BA0000"/>
<path fill-rule="evenodd" clip-rule="evenodd" d="M11.7477 9.2193C11.7477 9.2193 9.92881 8.43675 10.1897 6.40636C10.4399 5.42993 10.8876 4.76371 11.6948 4.40063C12.0755 4.28431 12.4633 4.23143 12.8581 4.19971C12.7523 4.29841 12.6677 4.39711 12.6219 4.51696C12.5373 4.74256 12.6008 4.95406 12.7171 5.16908C12.8616 5.41583 12.9497 5.66963 12.9779 6.00098C13.0044 6.22678 12.9708 6.45556 12.8804 6.66417C12.79 6.87278 12.6461 7.0538 12.4633 7.18891C12.2306 7.36868 11.9557 7.43213 11.7301 7.63658C11.5538 7.80578 11.4481 7.9785 11.4128 8.2746C11.4058 8.84213 11.5574 8.9232 11.7477 9.2193Z" fill="white"/>
<path fill-rule="evenodd" clip-rule="evenodd" d="M11.3984 6.28304V6.27246V6.28304Z" fill="#BA0000"/>
<path d="M11.3984 6.28304V6.27246" stroke="black" stroke-width="2.1"/>
<path d="M11.5148 9.00778C10.8098 8.38386 10.8697 6.80818 11.409 6.28296" stroke="#BA0000" stroke-width="0.5"/>
<path fill-rule="evenodd" clip-rule="evenodd" d="M11.8426 5.93043L11.9589 6.1243L11.7474 6.03618L11.5817 6.21243L11.6099 5.9833L11.3984 5.89517L11.6276 5.8423L11.6558 5.6167L11.7721 5.81057L12.0047 5.7577" fill="#BA0000"/>
<path fill-rule="evenodd" clip-rule="evenodd" d="M11.9023 9.08544C11.9023 9.08544 12.1138 7.11497 14.1337 6.76952C15.1418 6.72722 15.9103 6.95634 16.4954 7.62609C16.7175 7.95391 16.8796 8.30994 17.0242 8.67654C16.9008 8.60604 16.7845 8.55316 16.6505 8.54611C16.4143 8.52849 16.2275 8.65186 16.0583 8.82459C15.8607 9.04332 15.6144 9.21239 15.3392 9.31809C15.1313 9.41 14.9029 9.44537 14.6769 9.42061C14.451 9.39585 14.2356 9.31184 14.0526 9.17709C13.8129 9.00436 13.6719 8.76114 13.411 8.60604C13.199 8.48002 12.9478 8.4373 12.706 8.48619C12.1597 8.64834 12.1315 8.81754 11.9023 9.08544Z" fill="white"/>
<path fill-rule="evenodd" clip-rule="evenodd" d="M14.6064 7.89404H14.617H14.6064Z" fill="#BA0000"/>
<path d="M14.6064 7.89404H14.617" stroke="black" stroke-width="2.1"/>
<path d="M12.0332 8.80333C12.428 7.94323 13.9508 7.54138 14.61 7.90093" stroke="#BA0000" stroke-width="0.5"/>
<path fill-rule="evenodd" clip-rule="evenodd" d="M15.0753 8.21455L14.9237 8.38023L14.9449 8.1511L14.7334 8.04535L14.9555 8.0101L14.9766 7.77393L15.0965 7.98543L15.3221 7.94313L15.1705 8.1088L15.2868 8.3203" fill="#BA0000"/>
<path fill-rule="evenodd" clip-rule="evenodd" d="M12.0361 9.22632C12.0361 9.22632 13.9749 8.80332 14.9407 10.6116C15.3038 11.5528 15.3285 12.353 14.8808 13.1179C14.6411 13.4352 14.3521 13.6995 14.0524 13.9569C14.0806 13.8159 14.0912 13.689 14.056 13.5621C13.9996 13.3294 13.8233 13.1919 13.6048 13.0862C13.3336 12.9676 13.0944 12.7864 12.9068 12.5574C12.7547 12.3895 12.6496 12.1844 12.6019 11.9629C12.5543 11.7413 12.5658 11.5112 12.6354 11.2955C12.72 11.0135 12.9068 10.802 12.9703 10.5059C13.023 10.2655 12.984 10.0141 12.861 9.8009C12.5332 9.3356 12.364 9.36027 12.0361 9.22632Z" fill="white"/>
<path fill-rule="evenodd" clip-rule="evenodd" d="M14.0244 11.4155L14.0315 11.4226L14.0244 11.4155Z" fill="#BA0000"/>
<path d="M14.0244 11.4155L14.0315 11.4226" stroke="black" stroke-width="2.1"/>
<path d="M12.3506 9.26147C13.2882 9.3637 14.1519 10.6785 14.0214 11.4223" stroke="#BA0000" stroke-width="0.5"/>
<path fill-rule="evenodd" clip-rule="evenodd" d="M13.8691 11.9618L13.6611 11.8701L13.8903 11.8172L13.9185 11.5811L14.0277 11.782L14.2569 11.7291L14.0982 11.9054L14.204 12.1063L13.9995 12.0146L13.8409 12.1944" fill="#BA0000"/>
<path fill-rule="evenodd" clip-rule="evenodd" d="M11.9938 9.42735C11.9938 9.42735 12.942 11.1687 11.4827 12.5999C10.679 13.2132 9.91755 13.4635 9.05745 13.2485C8.68733 13.1075 8.35245 12.9065 8.01758 12.688C8.15858 12.6774 8.289 12.6527 8.4018 12.5822C8.60625 12.4624 8.68733 12.2544 8.72963 12.0182C8.76632 11.7237 8.87265 11.4422 9.03983 11.1969C9.15811 11.0034 9.32531 10.8445 9.52458 10.7362C9.72385 10.6279 9.94816 10.574 10.1749 10.58C10.471 10.5836 10.7248 10.7069 11.0279 10.6858C11.2712 10.6541 11.4615 10.5871 11.6765 10.3756C12.029 9.93495 11.9585 9.77633 11.9938 9.42383V9.42735Z" fill="white"/>
<path fill-rule="evenodd" clip-rule="evenodd" d="M10.4498 11.9512L10.4463 11.9582L10.4498 11.9512Z" fill="#BA0000"/>
<path d="M10.4498 11.9512L10.4463 11.9582" stroke="black" stroke-width="2.1"/>
<path d="M12.0437 9.73413C12.2164 10.6647 11.1942 11.8668 10.4434 11.9443" stroke="#BA0000" stroke-width="0.5"/>
<path fill-rule="evenodd" clip-rule="evenodd" d="M9.88245 11.9548L9.91417 11.7292L10.0305 11.9302L10.2631 11.8949L10.101 12.0571L10.2173 12.258L10.0023 12.1558L9.84015 12.3179L9.86835 12.0923L9.65332 11.9901" fill="#BA0000"/>
<path fill-rule="evenodd" clip-rule="evenodd" d="M11.7792 9.38856C11.7792 9.38856 10.4538 10.862 8.61372 9.96666C7.76772 9.41323 7.28127 8.77521 7.2002 7.89396C7.21077 7.49564 7.2848 7.11494 7.37997 6.73071C7.4399 6.85761 7.50687 6.97041 7.6091 7.05501C7.78887 7.20659 8.01447 7.21364 8.25417 7.17486C8.54188 7.11186 8.84053 7.11911 9.12485 7.19601C9.34746 7.24287 9.55373 7.34777 9.72273 7.50006C9.89173 7.65234 10.0175 7.84661 10.0872 8.06316C10.1823 8.34164 10.1506 8.62364 10.274 8.90211C10.3797 9.12066 10.5066 9.27576 10.7781 9.40971C11.3139 9.59653 11.4372 9.47668 11.7792 9.39208V9.38856Z" fill="white"/>
<path fill-rule="evenodd" clip-rule="evenodd" d="M8.88498 8.77525L8.87793 8.77173L8.88498 8.77525Z" fill="#BA0000"/>
<path d="M8.88498 8.77525L8.87793 8.77173" stroke="black" stroke-width="2.1"/>
<path d="M11.5042 9.54015C10.6864 10.009 9.21297 9.44497 8.88867 8.76465" stroke="#BA0000" stroke-width="0.5"/>
<path fill-rule="evenodd" clip-rule="evenodd" d="M8.69451 8.23947L8.91658 8.19364L8.76501 8.3699L8.87428 8.57787L8.66983 8.47917L8.51826 8.65542L8.54293 8.41572L8.33496 8.31702L8.55703 8.27119L8.58171 8.03149" fill="#BA0000"/>
</svg>

<svg width="24" height="18" fill="none" xmlns="http://www.w3.org/2000/svg"><path fill-rule="evenodd" clip-rule="evenodd" d="M24 18H0V0h24v18z" fill="#BA0000"/><path fill-rule="evenodd" clip-rule="evenodd" d="M11.748 9.22s-1.82-.783-1.558-2.814c.25-.976.698-1.642 1.505-2.005.38-.117.768-.17 1.163-.201a.869.869 0 00-.236.317c-.085.226-.021.437.095.652.145.247.233.5.26.832a1.29 1.29 0 01-.514 1.188c-.232.18-.507.243-.733.448a.958.958 0 00-.317.638c-.007.567.144.648.335.944z" fill="#fff"/><path fill-rule="evenodd" clip-rule="evenodd" d="M11.398 6.283v-.01.01z" fill="#BA0000"/><path d="M11.398 6.283v-.01" stroke="#000" stroke-width="2.1"/><path d="M11.515 9.008c-.705-.624-.645-2.2-.106-2.725" stroke="#BA0000" stroke-width=".5"/><path fill-rule="evenodd" clip-rule="evenodd" d="M11.843 5.93l.116.194-.212-.088-.165.176.028-.229-.212-.088.23-.053.028-.225.116.194.233-.053" fill="#BA0000"/><path fill-rule="evenodd" clip-rule="evenodd" d="M11.902 9.085s.212-1.97 2.232-2.315c1.008-.043 1.776.186 2.361.856.223.328.385.684.53 1.05a.835.835 0 00-.374-.13c-.237-.018-.424.106-.593.279a1.875 1.875 0 01-.719.493 1.29 1.29 0 01-1.286-.14c-.24-.174-.381-.417-.642-.572a.994.994 0 00-.705-.12c-.546.162-.574.332-.804.6z" fill="#fff"/><path fill-rule="evenodd" clip-rule="evenodd" d="M14.606 7.894h.011-.01z" fill="#BA0000"/><path d="M14.606 7.894h.011" stroke="#000" stroke-width="2.1"/><path d="M12.033 8.803c.395-.86 1.918-1.262 2.577-.902" stroke="#BA0000" stroke-width=".5"/><path fill-rule="evenodd" clip-rule="evenodd" d="M15.075 8.215l-.151.165.02-.229-.21-.106.222-.035.02-.236.12.211.226-.042-.151.166.116.211" fill="#BA0000"/><path fill-rule="evenodd" clip-rule="evenodd" d="M12.036 9.226s1.939-.423 2.905 1.386c.363.94.387 1.741-.06 2.506-.24.317-.529.582-.829.839a.833.833 0 00.004-.395c-.056-.233-.233-.37-.451-.476a1.87 1.87 0 01-.698-.529 1.29 1.29 0 01-.272-1.261c.085-.282.272-.494.335-.79a.988.988 0 00-.109-.705c-.328-.465-.497-.44-.825-.575z" fill="#fff"/><path fill-rule="evenodd" clip-rule="evenodd" d="M14.024 11.415l.008.008-.008-.008z" fill="#BA0000"/><path d="M14.024 11.415l.008.008" stroke="#000" stroke-width="2.1"/><path d="M12.35 9.261c.938.103 1.802 1.418 1.671 2.161" stroke="#BA0000" stroke-width=".5"/><path fill-rule="evenodd" clip-rule="evenodd" d="M13.87 11.962l-.209-.092.23-.053.027-.236.11.201.229-.053-.159.176.106.201-.205-.091-.158.18" fill="#BA0000"/><path fill-rule="evenodd" clip-rule="evenodd" d="M11.994 9.427s.948 1.742-.511 3.173c-.804.613-1.565.864-2.426.649-.37-.142-.705-.343-1.04-.561a.823.823 0 00.385-.106c.204-.12.285-.328.328-.564.036-.294.143-.576.31-.821a1.29 1.29 0 011.135-.617c.296.004.55.127.853.106.243-.032.433-.099.649-.31.352-.441.282-.6.317-.952v.003z" fill="#fff"/><path fill-rule="evenodd" clip-rule="evenodd" d="M10.45 11.951l-.004.007.004-.007z" fill="#BA0000"/><path d="M10.45 11.951l-.004.007" stroke="#000" stroke-width="2.1"/><path d="M12.044 9.734c.172.93-.85 2.133-1.6 2.21" stroke="#BA0000" stroke-width=".5"/><path fill-rule="evenodd" clip-rule="evenodd" d="M9.882 11.955l.032-.226.117.201.232-.035-.162.162.116.201-.215-.102-.162.162.028-.226-.215-.102" fill="#BA0000"/><path fill-rule="evenodd" clip-rule="evenodd" d="M11.78 9.389s-1.326 1.473-3.166.578C7.768 9.413 7.28 8.775 7.2 7.894c.01-.398.085-.78.18-1.163.06.127.127.24.23.324.179.152.404.159.644.12.288-.063.587-.056.87.021a1.29 1.29 0 01.963.867c.095.279.064.56.187.84a.992.992 0 00.504.507c.536.187.66.067 1.001-.018V9.39z" fill="#fff"/><path fill-rule="evenodd" clip-rule="evenodd" d="M8.885 8.775l-.007-.003.007.003z" fill="#BA0000"/><path d="M8.885 8.775l-.007-.003" stroke="#000" stroke-width="2.1"/><path d="M11.504 9.54c-.818.469-2.291-.095-2.615-.775" stroke="#BA0000" stroke-width=".5"/><path fill-rule="evenodd" clip-rule="evenodd" d="M8.695 8.24l.222-.046-.152.176.11.208-.205-.099-.152.176.025-.24-.208-.098.222-.046.025-.24" fill="#BA0000"/></svg>
